svg/u270b_1f3fc.svg

<svg viewBox="0 0 128 128" xmlns="http://www.w3.org/2000/svg" xmlns:xlink="http://www.w3.org/1999/xlink">
  <radialGradient id="c" cx="57.16" cy="33.264" gradientUnits="userSpaceOnUse" r="89.842">
    <stop offset=".3582" stop-color="#E0BB95"/>
    <stop offset=".8723" stop-color="#CCA47A"/>
  </radialGradient>
  <path d="m50.9 122.3c-23.88 0-30.28-12.73-31.45-23.41-0.55-5.04-1.27-61.23-1.27-61.8 0-2.78 0.71-7.48 5.46-7.48 4.46 0 6.46 3.77 6.46 7.5l0.46 23.24c0.02 0.82 0.68 1.65 1.5 1.65s1.48-0.84 1.5-1.66l0.59-38.24c0-3.76 2-7.57 6.46-7.57s6.46 3.74 6.46 7.48l0.48 37.92c0.01 0.82 0.68 1.47 1.5 1.47s1.49-0.66 1.5-1.48l0.57-46.71c0-3.75 2-7.52 6.46-7.52s6.46 3.77 6.46 7.5l0.59 46.46c0.01 0.82 0.68 1.48 1.5 1.48s1.49-0.66 1.5-1.48l0.47-34.65c0-3.75 2-7.52 6.46-7.52s6.46 3.77 6.46 7.5c0.11 12.42 0.38 44.85 0.34 46.01-0.08 0.92 0.26 1.52 0.56 1.85 0.4 0.44 0.98 0.69 1.63 0.69 1.44 0 2.87-1.14 3.27-1.49 1.78-1.54 3.31-3.95 4.93-6.5 2.02-3.18 4.12-6.48 6.36-7.39 1.76-0.71 3.89-1.11 6.01-1.11 3.4 0 5.53 1 5.89 1.98 1.56 4.3-0.32 5.95-5.09 9.6l-0.92 0.71c-4.73 3.65-7.8 11.08-10.52 17.63-1.11 2.67-2.15 5.2-3.23 7.32-0.65 1.28-1.21 2.79-1.86 4.53-3.46 9.36-8.72 23.49-37.49 23.49z" fill="url(#c)"/>
  <path d="m57.59 7.2c2.29 0 4.96 1.57 4.96 6.04l0.59 46.62c0.02 1.64 1.36 3.14 3 3.14s2.98-1.5 3-3.14l0.47-34.78c0-2.77 1.3-6.04 4.96-6.04s4.96 3.21 4.96 6c0.15 17.6 0.37 44.16 0.34 45.88-0.1 1.46 0.46 2.4 0.95 2.95 0.69 0.76 1.67 1.17 2.74 1.17 1.9 0 3.61-1.3 4.25-1.86 1.94-1.68 3.53-4.18 5.21-6.83 1.81-2.85 3.86-6.07 5.66-6.8 1.56-0.63 3.55-1 5.45-1 2.78 0 4.24 0.74 4.5 1.04 1.12 3.12 0.24 4.14-4.61 7.84l-0.92 0.71c-5.05 3.89-8.2 11.52-10.99 18.25-1.09 2.65-2.13 5.14-3.18 7.21-0.69 1.36-1.3 2.98-1.93 4.69-1.68 4.51-3.77 10.13-8.78 14.57-6.02 5.35-14.96 7.94-27.33 7.94-12.56 0-27.96-3.83-29.96-22.08-0.45-4.12-1.07-45.9-1.26-61.62 0-3.98 1.53-6 4.16-6 2.29 0 5.16 1.57 5.16 6v0.06l0.26 22.96c0.03 1.63 1.17 2.87 2.8 2.87h0.01c1.64 0 2.97-1.25 2.99-2.88l0.59-38.16c0-2.77 1.3-5.98 4.96-5.98s4.96 3.24 4.96 6.05l0.45 37.91c0.04 1.65 0.99 2.97 2.99 2.97s3.01-1.32 3.03-2.96l0.59-46.74c0-4.43 2.68-6 4.97-6m0-3c-4.95 0-7.96 4.03-7.96 9l-0.57 46.7-0.48-37.91c0-4.97-3.01-9-7.96-9s-7.96 4.03-7.96 9l-0.59 38.15-0.47-23.03c0-4.97-3.02-9-7.96-9-4.95 0-6.96 4.03-6.96 9 0 0 0.72 56.78 1.28 61.94 0.93 8.5 5.74 24.75 32.94 24.75 35.1 0 36.64-20.86 40.71-28.84 3.79-7.43 7.09-19.64 13.33-24.45 4.96-3.83 8.62-6.12 6.5-12-0.71-1.96-3.81-2.97-7.3-2.97-2.2 0-4.56 0.4-6.57 1.22-4.6 1.87-7.84 10.79-11.7 14.14-0.72 0.62-1.66 1.13-2.29 1.13-0.46 0-0.76-0.27-0.7-0.95 0.06-0.69-0.34-46.09-0.34-46.09 0-4.97-3.01-9-7.96-9s-7.96 4.03-7.96 9l-0.47 34.65-0.6-46.44c0-4.98-3.01-9-7.96-9z" fill="#BA8F63"/>
  <defs>
    <path id="b" d="m107.92 57.8c-2.27-2.53-8.01-3.72-13.54-1.54-4.65 1.83-9.96 19.19-9.96 19.19l-3.87-6.4s-65.53 21.5-64.6 30 7.74 24.75 34.94 24.75c35.1 0 36.64-20.86 40.71-28.84 3.79-7.43 8.56-24.71 14.42-26.55 3.8-1.18 3.82-8.48 1.9-10.61z"/>
  </defs>
  <clipPath id="a">
    <use xlink:href="#b"/>
  </clipPath>
  <g clip-path="url(#a)">
    <path d="m83.91 69.48c-10.91 4.16-17.34 14.43-21.29 27.9-0.54 1.86 1.17 2.4 1.83 0.58 6.86-18.88 23.87-25.11 23.87-25.11l-4.41-3.37z" fill="#BA8F63"/>
  </g>
</svg>

<svg viewBox="0 0 128 128" xmlns="http://www.w3.org/2000/svg">
  <defs>
    <radialGradient id="c" cx="57.16" cy="33.264" gradientUnits="userSpaceOnUse" r="89.842">
      <stop offset=".3582" stop-color="#E0BB95"/>
      <stop offset=".8723" stop-color="#CCA47A"/>
    </radialGradient>
  </defs>
  <path d="M50.9,122.3 C27.02,122.3 20.62,109.57 19.45,98.89 C18.9,93.85 18.18,37.66 18.18,37.09 C18.18,34.31 18.89,29.61 23.64,29.61 C28.1,29.61 30.1,33.38 30.1,37.11 L30.56,60.35 C30.58,61.17 31.24,62 32.06,62 C32.88,62 33.54,61.16 33.56,60.34 L34.15,22.1 C34.15,18.34 36.15,14.53 40.61,14.53 C45.07,14.53 47.07,18.27 47.07,22.01 L47.55,59.93 C47.56,60.75 48.23,61.4 49.05,61.4 C49.87,61.4 50.54,60.74 50.55,59.92 L51.12,13.21 C51.12,9.46 53.12,5.69 57.58,5.69 C62.04,5.69 64.04,9.46 64.04,13.19 L64.63,59.65 C64.64,60.47 65.31,61.13 66.13,61.13 C66.95,61.13 67.62,60.47 67.63,59.65 L68.1,25 C68.1,21.25 70.1,17.48 74.56,17.48 C79.02,17.48 81.02,21.25 81.02,24.98 C81.13,37.4 81.4,69.83 81.36,70.99 C81.28,71.91 81.62,72.51 81.92,72.84 C82.32,73.28 82.9,73.53 83.55,73.53 C84.99,73.53 86.42,72.39 86.82,72.04 C88.6,70.5 90.13,68.09 91.75,65.54 C93.77,62.36 95.87,59.06 98.11,58.15 C99.87,57.44 102,57.04 104.12,57.04 C107.52,57.04 109.65,58.04 110.01,59.02 C111.57,63.32 109.69,64.97 104.92,68.62 L104,69.33 C99.27,72.98 96.2,80.41 93.48,86.96 C92.37,89.63 91.33,92.16 90.25,94.28 C89.6,95.56 89.04,97.07 88.39,98.81 C84.93,108.17 79.67,122.3 50.9,122.3 Z" fill="url(#c)"/>
  <path d="M57.59,7.2 C59.88,7.2 62.55,8.77 62.55,13.24 L63.14,59.86 C63.16,61.5 64.5,63 66.14,63 C67.78,63 69.12,61.5 69.14,59.86 L69.61,25.08 C69.61,22.31 70.91,19.04 74.57,19.04 C78.23,19.04 79.53,22.25 79.53,25.04 C79.68,42.64 79.9,69.2 79.87,70.92 C79.77,72.38 80.33,73.32 80.82,73.87 C81.51,74.63 82.49,75.04 83.56,75.04 C85.46,75.04 87.17,73.74 87.81,73.18 C89.75,71.5 91.34,69 93.02,66.35 C94.83,63.5 96.88,60.28 98.68,59.55 C100.24,58.92 102.23,58.55 104.13,58.55 C106.91,58.55 108.37,59.29 108.63,59.59 C109.75,62.71 108.87,63.73 104.02,67.43 L103.1,68.14 C98.05,72.03 94.9,79.66 92.11,86.39 C91.02,89.04 89.98,91.53 88.93,93.6 C88.24,94.96 87.63,96.58 87,98.29 C85.32,102.8 83.23,108.42 78.22,112.86 C72.2,118.21 63.26,120.8 50.89,120.8 C38.33,120.8 22.93,116.97 20.93,98.72 C20.48,94.6 19.86,52.82 19.67,37.1 C19.67,33.12 21.2,31.1 23.83,31.1 C26.12,31.1 28.99,32.67 28.99,37.1 L28.99,37.16 L29.25,60.12 C29.28,61.75 30.42,62.99 32.05,62.99 L32.06,62.99 C33.7,62.99 35.03,61.74 35.05,60.11 L35.64,21.95 C35.64,19.18 36.94,15.97 40.6,15.97 C44.26,15.97 45.56,19.21 45.56,22.02 L46.01,59.93 C46.05,61.58 47,62.9 49,62.9 C51,62.9 52.01,61.58 52.03,59.94 L52.62,13.2 C52.62,8.77 55.3,7.2 57.59,7.2 M57.59,4.2 C52.64,4.2 49.63,8.23 49.63,13.2 L49.06,59.9 L48.58,21.99 C48.58,17.02 45.57,12.99 40.62,12.99 C35.67,12.99 32.66,17.02 32.66,21.99 L32.07,60.14 L31.6,37.11 C31.6,32.14 28.58,28.11 23.64,28.11 C18.69,28.11 16.68,32.14 16.68,37.11 C16.68,37.11 17.4,93.89 17.96,99.05 C18.89,107.55 23.7,123.8 50.9,123.8 C86,123.8 87.54,102.94 91.61,94.96 C95.4,87.53 98.7,75.32 104.94,70.51 C109.9,66.68 113.56,64.39 111.44,58.51 C110.73,56.55 107.63,55.54 104.14,55.54 C101.94,55.54 99.58,55.94 97.57,56.76 C92.97,58.63 89.73,67.55 85.87,70.9 C85.15,71.52 84.21,72.03 83.58,72.03 C83.12,72.03 82.82,71.76 82.88,71.08 C82.94,70.39 82.54,24.99 82.54,24.99 C82.54,20.02 79.53,15.99 74.58,15.99 C69.63,15.99 66.62,20.02 66.62,24.99 L66.15,59.64 L65.55,13.2 C65.55,8.22 62.54,4.2 57.59,4.2 Z" fill="#BA8F63"/>
  <path d="M81.459,70.553 L84.094,74.911 C78.598,78.04 69.146,85.036 64.45,97.96 C63.79,99.78 62.08,99.24 62.62,97.38 C66.265,84.951 72.021,75.247 81.459,70.553 Z M84.698,74.574 C84.953,73.786 85.375,72.523 85.92,71.016 L88.32,72.85 C88.32,72.85 86.893,73.373 84.698,74.574 Z" fill="#BA8F63"/>
</svg>
